X:40
T:Johan p{\aa} Snippen
R:schottis
Z:id:hn-schottis-40
M:C|
K:G
D2 | G2G>A B2B>c | d2d>c B3B | A2A>B c2B>A | G2FE D2D2 |
G2G>A B2B>c | d2d>c B3B | A2A>B cAFA | G2G>G G2 :| z2 |
|: G2c>e G2c>e | G>Gc>G e2e2 | G2B>d G2B>d | G>GB>G d2d2 |
D2F>A D2F>A | c>cc>B A2A2 | D2F>A D2F>A |[1 B>c B>A G2G2 :|
[2 G2G2 G2 ||
